X:4571
L:1/8
M:6/8
K:G
 G3 A3 | dBg dBG | c/d/ec dBG | F2 G AFD | G3 A3 | dBg fed | (e/f/a)f (f/g/a)f | ggg g2 z :: 
 G2 g G2 g | G2 g dBG | F2 A F2 d | F2 G AFD | G3 A3 | dBg fed | efg (f/g/af) | ggg g2 z :|

